plasma/desktoptheme/Arc-Color/widgets/checkmarks.svg

<svg xmlns="http://www.w3.org/2000/svg" width="16" height="16" version="1">
<defs>
  <style id="current-color-scheme" type="text/css">
   .ColorScheme-Background {color:#2f343f; } .ColorScheme-ButtonBackground { color:#444a58; } .ColorScheme-Highlight { color:#5c87cc; } .ColorScheme-Text { color:#d3dae3; } .ColorScheme-NegativeText { color:#f44336; } .ColorScheme-PositiveText { color:#4caf50; } .ColorScheme-NeutralText { color:#ff9800; }
  </style>
 </defs>
 <g id="checkbox">
  <rect style="opacity:0.001" width="16" height="16" x="16" y="0"/>
  <rect width="14" height="14" x="17" y="1" rx="2" style="fill:currentColor" class="ColorScheme-Highlight" ry="2"/>
  <path style="fill:currentColor" class="ColorScheme-Background" d="M 27.279297 4.4296875 L 23.037109 8.671875 L 21.386719 7.0234375 C 21.12543 6.7621488 20.704648 6.7621488 20.443359 7.0234375 L 19.972656 7.4941406 C 19.711368 7.7554293 19.711368 8.1762113 19.972656 8.4375 L 21.623047 10.085938 L 22.566406 11.029297 L 23.037109 11.5 L 23.492188 11.044922 L 23.980469 10.558594 C 23.986134 10.552929 23.990675 10.546827 23.996094 10.541016 L 28.693359 5.84375 L 27.279297 4.4296875 z"/>
 </g>
 <g id="radiobutton">
  <rect width="16" height="16" x="0" y="0" style="opacity:0.001"/>
  <rect width="14" height="14" x="1" y="1" rx="7" style="fill:currentColor" class="ColorScheme-Highlight" ry="7"/>
  <rect width="4" height="4" x="6" y="6" rx="1.999" style="fill:currentColor" class="ColorScheme-Background" ry="2"/>
 </g>
</svg>

<?xml version="1.0" encoding="UTF-8"?>
<svg width="16" height="16" version="1" xmlns="http://www.w3.org/2000/svg">
 <defs>
  <style id="current-color-scheme" type="text/css">.ColorScheme-Background {color:#2f343f; } .ColorScheme-ButtonBackground { color:#444a58; } .ColorScheme-Highlight { color:#5c87cc; } .ColorScheme-Text { color:#d3dae3; } .ColorScheme-NegativeText { color:#f44336; } .ColorScheme-PositiveText { color:#4caf50; } .ColorScheme-NeutralText { color:#ff9800; }</style>
 </defs>
 <g id="checkbox">
  <rect x="16" width="16" height="16" opacity=".001"/>
  <rect class="ColorScheme-Highlight" x="17" y="1" width="14" height="14" rx="2" ry="2" fill="currentColor"/>
  <path class="ColorScheme-Background" d="m27.279 4.4297-4.2422 4.2422-1.6504-1.6484c-0.26129-0.26129-0.68207-0.26129-0.94336 0l-0.4707 0.4707c-0.26129 0.26129-0.26129 0.68207 0 0.94336l1.6504 1.6484 1.4141 1.4141 0.45508-0.45508 0.48828-0.48633c0.005665-0.005665 0.010206-0.011767 0.015625-0.017578l4.6973-4.6973-1.4141-1.4141z" fill="currentColor"/>
 </g>
 <g id="radiobutton">
  <rect width="16" height="16" opacity=".001"/>
  <rect class="ColorScheme-Highlight" x="1" y="1" width="14" height="14" rx="7" ry="7" fill="currentColor"/>
  <rect class="ColorScheme-Background" x="6" y="6" width="4" height="4" rx="1.999" ry="2" fill="currentColor"/>
 </g>
</svg>
